public/section-block-left.svg

<svg width="183" height="194" viewBox="0 0 183 194" fill="none" xmlns="http://www.w3.org/2000/svg">
<g clip-path="url(#clip0_9_78514)">
<mask id="mask0_9_78514" style="mask-type:luminance" maskUnits="userSpaceOnUse" x="0" y="0" width="183" height="194">
<path d="M183 0H0V194H183V0Z" fill="white"/>
</mask>
<g mask="url(#mask0_9_78514)">
<mask id="mask1_9_78514" style="mask-type:luminance" maskUnits="userSpaceOnUse" x="-1076" y="-129" width="1296" height="324">
<path d="M210 -128.738H-1066C-1071.52 -128.738 -1076 -124.261 -1076 -118.738V184.262C-1076 189.785 -1071.52 194.262 -1066 194.262H210C215.523 194.262 220 189.785 220 184.262V-118.738C220 -124.261 215.523 -128.738 210 -128.738Z" fill="white"/>
</mask>
<g mask="url(#mask1_9_78514)">
<path d="M161.132 102.641L21.0195 118.962L31.0255 204.847H31.0615C31.1435 206.37 32.1475 207.735 34.1335 208.592L98.5475 236.401C102.717 238.201 109.506 237.124 113.713 233.994L167.967 193.638C170.139 192.024 171.175 190.183 171.12 188.526H171.134L161.132 102.641Z" fill="url(#paint0_linear_9_78514)"/>
<path d="M88.5523 150.553L24.1383 122.737C19.9693 120.937 19.9994 116.937 24.2064 113.81L78.4524 73.4545C82.6594 70.3245 89.4524 69.2475 93.6194 71.0475L158.035 98.8635C162.204 100.663 162.172 104.663 157.965 107.79L103.711 148.146C99.5084 151.276 92.7173 152.354 88.5523 150.553Z" fill="url(#paint1_linear_9_78514)"/>
<path d="M89.6658 133.051L53.6118 117.48C51.2788 116.474 51.2978 114.236 53.6508 112.486L84.0168 89.8974C86.3718 88.1454 90.1739 87.5424 92.5059 88.5514L128.56 104.115C130.893 105.121 130.874 107.359 128.522 109.115L98.1558 131.702C95.7998 133.454 91.9978 134.057 89.6658 133.051Z" fill="url(#paint2_linear_9_78514)"/>
<path d="M157.67 105.195L103.414 145.551C99.2075 148.681 92.4145 149.758 88.2495 147.958L23.8294 120.143C22.7055 119.712 21.768 118.901 21.1794 117.851C20.7014 119.825 21.6605 121.671 24.1335 122.738L88.5475 150.554C92.7165 152.354 99.5074 151.277 103.714 148.147L157.97 107.791C160.842 105.653 161.719 103.126 160.69 101.156C160.182 102.812 159.115 104.24 157.67 105.195Z" fill="white"/>
<path d="M147.747 72.3345L20.3539 11.7695L12.9229 27.2295L12.9569 27.2455C12.2179 28.5805 12.3429 30.2675 13.5709 32.0455L53.3868 89.8225C55.9618 93.5625 62.2868 96.2535 67.5158 95.8365L134.916 90.4455C137.616 90.2305 139.47 89.2195 140.302 87.7885H140.313L147.747 72.3345Z" fill="url(#paint3_linear_9_78514)"/>
<path d="M60.8004 74.397L20.9864 16.623C18.4094 12.885 20.5584 9.51403 25.7864 9.09703L93.1864 3.70703C98.4134 3.28803 104.74 5.98102 107.315 9.71902L147.132 67.493C149.707 71.233 147.56 74.602 142.332 75.021L74.9324 80.411C69.7044 80.828 63.3774 78.137 60.8004 74.397Z" fill="url(#paint4_linear_9_78514)"/>
<path d="M143.455 72.66L76.0551 78.0511C70.8281 78.4681 64.5032 75.7751 61.9262 72.0371L22.1082 14.2621C21.3836 13.301 21.0194 12.1161 21.0791 10.9141C19.6241 12.3331 19.4561 14.4051 20.9861 16.6221L60.8001 74.4001C63.3771 78.1401 69.7001 80.8311 74.9291 80.4141L142.329 75.0241C145.899 74.7381 147.982 73.0611 148.157 70.8441C146.848 71.9767 145.186 72.6187 143.455 72.66Z" fill="url(#paint5_linear_9_78514)"/>
<path opacity="0.7" d="M77.0852 65.1483L53.8002 31.3593C52.2922 29.1723 53.5482 27.2024 56.6062 26.9594L96.0262 23.8064C99.0822 23.5614 102.781 25.1374 104.289 27.3244L127.574 61.1113C129.081 63.2993 127.826 65.2684 124.768 65.5114L85.3482 68.6643C82.2922 68.9093 78.5932 67.3344 77.0852 65.1483Z" fill="url(#paint6_linear_9_78514)"/>
<path d="M127.096 47.4815L52.5958 12.0625L48.2528 21.1025L48.2708 21.1135C48.0529 21.5664 47.9709 22.0728 48.0348 22.5713C48.0987 23.0699 48.3057 23.5392 48.6308 23.9225L71.9158 57.7095C73.4228 59.8975 77.1228 61.4705 80.1788 61.2275L119.599 58.0745C120.21 58.0871 120.815 57.9524 121.363 57.6817C121.911 57.411 122.386 57.0124 122.748 56.5195H122.757L127.096 47.4815Z" fill="url(#paint7_linear_9_78514)"/>
<path d="M76.248 48.6914L52.963 14.8984C51.456 12.7134 52.711 10.7415 55.763 10.4985L95.183 7.34546C98.241 7.10046 101.94 8.67346 103.448 10.8615L126.733 44.6504C128.24 46.8354 126.982 48.8075 123.927 49.0505L84.507 52.2015C81.455 52.4485 77.756 50.8755 76.248 48.6914Z" fill="url(#paint8_linear_9_78514)"/>
</g>
</g>
</g>
<defs>
<linearGradient id="paint0_linear_9_78514" x1="284.169" y1="184.766" x2="425.276" y2="184.766" gradientUnits="userSpaceOnUse">
<stop stop-color="#5E98F7"/>
<stop offset="1" stop-color="#4670BA"/>
</linearGradient>
<linearGradient id="paint1_linear_9_78514" x1="91.0864" y1="70.1758" x2="91.0864" y2="151.425" gradientUnits="userSpaceOnUse">
<stop stop-color="#5E98F7"/>
<stop offset="1" stop-color="#4670BA"/>
</linearGradient>
<linearGradient id="paint2_linear_9_78514" x1="52.5798" y1="115.53" x2="124.47" y2="89.3378" gradientUnits="userSpaceOnUse">
<stop stop-color="#7AACFF"/>
<stop offset="0.456" stop-color="#5386DC"/>
<stop offset="1" stop-color="#7CA4EB"/>
</linearGradient>
<linearGradient id="paint3_linear_9_78514" x1="-777.747" y1="1266.01" x2="-636.55" y2="1266.01" gradientUnits="userSpaceOnUse">
<stop stop-color="#5E98F7"/>
<stop offset="1" stop-color="#4670BA"/>
</linearGradient>
<linearGradient id="paint4_linear_9_78514" x1="-769.302" y1="1143.22" x2="-710.189" y2="1392.04" gradientUnits="userSpaceOnUse">
<stop stop-color="#5E98F7"/>
<stop offset="1" stop-color="#4670BA"/>
</linearGradient>
<linearGradient id="paint5_linear_9_78514" x1="84.0341" y1="10.9141" x2="84.0341" y2="80.4567" gradientUnits="userSpaceOnUse">
<stop stop-color="#5E98F7"/>
<stop offset="1" stop-color="#4670BA"/>
</linearGradient>
<linearGradient id="paint6_linear_9_78514" x1="90.687" y1="23.7812" x2="90.687" y2="68.6895" gradientUnits="userSpaceOnUse">
<stop stop-color="#5E98F7"/>
<stop offset="1" stop-color="#4670BA"/>
</linearGradient>
<linearGradient id="paint7_linear_9_78514" x1="-748.264" y1="1240.38" x2="-665.702" y2="1240.38" gradientUnits="userSpaceOnUse">
<stop stop-color="#5E98F7"/>
<stop offset="1" stop-color="#4670BA"/>
</linearGradient>
<linearGradient id="paint8_linear_9_78514" x1="-743.452" y1="1168.56" x2="-708.917" y2="1314.05" gradientUnits="userSpaceOnUse">
<stop stop-color="#5E98F7"/>
<stop offset="1" stop-color="#4670BA"/>
</linearGradient>
<clipPath id="clip0_9_78514">
<rect width="183" height="194" fill="white"/>
</clipPath>
</defs>
</svg>

<svg xmlns="http://www.w3.org/2000/svg" width="183" height="194" fill="none" viewBox="0 0 183 194"><g clip-path="url(#a)"><mask id="b" width="183" height="194" x="0" y="0" maskUnits="userSpaceOnUse" style="mask-type:luminance"><path fill="#fff" d="M183 0H0v194h183z"/></mask><g mask="url(#b)"><mask id="c" width="1296" height="324" x="-1076" y="-129" maskUnits="userSpaceOnUse" style="mask-type:luminance"><path fill="#fff" d="M210-128.738h-1276c-5.52 0-10 4.477-10 10v303c0 5.523 4.48 10 10 10H210c5.523 0 10-4.477 10-10v-303c0-5.523-4.477-10-10-10"/></mask><g mask="url(#c)"><path fill="url(#d)" d="M161.132 102.641 21.02 118.962l10.006 85.885h.035c.082 1.523 1.087 2.888 3.072 3.745l64.415 27.809c4.169 1.8 10.958.723 15.165-2.407l54.254-40.356c2.172-1.614 3.208-3.455 3.153-5.112h.014z"/><path fill="url(#e)" d="m88.552 150.553-64.414-27.816c-4.169-1.8-4.139-5.8.068-8.927l54.246-40.356c4.207-3.13 11-4.206 15.167-2.406l64.416 27.816c4.169 1.799 4.137 5.799-.07 8.926l-54.254 40.356c-4.203 3.13-10.994 4.208-15.159 2.407"/><path fill="url(#f)" d="M89.666 133.051 53.612 117.48c-2.333-1.006-2.314-3.244.039-4.994l30.366-22.589c2.355-1.752 6.157-2.355 8.489-1.346l36.054 15.564c2.333 1.006 2.314 3.244-.038 5l-30.366 22.587c-2.356 1.752-6.158 2.355-8.49 1.349"/><path fill="#fff" d="m157.67 105.195-54.256 40.356c-4.207 3.13-11 4.207-15.165 2.407l-64.42-27.815a5.15 5.15 0 0 1-2.65-2.292c-.478 1.974.482 3.82 2.955 4.887l64.414 27.816c4.168 1.8 10.96.723 15.166-2.407l54.256-40.356c2.872-2.138 3.749-4.665 2.72-6.635a7.46 7.46 0 0 1-3.02 4.039"/><path fill="url(#g)" d="M147.747 72.335 20.354 11.77l-7.431 15.46.034.015c-.74 1.335-.614 3.022.614 4.8l39.816 57.778c2.575 3.74 8.9 6.43 14.129 6.014l67.4-5.392c2.7-.214 4.554-1.225 5.386-2.656h.011z"/><path fill="url(#h)" d="M60.8 74.397 20.986 16.623c-2.577-3.738-.428-7.109 4.8-7.526l67.4-5.39c5.227-.419 11.554 2.274 14.129 6.012l39.817 57.774c2.575 3.74.428 7.109-4.8 7.528l-67.4 5.39c-5.228.417-11.555-2.274-14.132-6.014"/><path fill="url(#i)" d="m143.455 72.66-67.4 5.391c-5.227.417-11.552-2.276-14.129-6.014L22.108 14.262a5.14 5.14 0 0 1-1.029-3.348c-1.455 1.42-1.623 3.491-.093 5.708L60.8 74.4c2.577 3.74 8.9 6.431 14.13 6.014l67.399-5.39c3.57-.286 5.653-1.963 5.828-4.18a7.46 7.46 0 0 1-4.702 1.816"/><path fill="url(#j)" d="M77.085 65.148 53.8 31.36c-1.508-2.187-.252-4.157 2.806-4.4l39.42-3.153c3.056-.245 6.755 1.331 8.263 3.518l23.285 33.787c1.507 2.188.252 4.157-2.806 4.4l-39.42 3.153c-3.056.245-6.755-1.33-8.263-3.516" opacity=".7"/><path fill="url(#k)" d="m127.096 47.482-74.5-35.42-4.343 9.04.018.011a2.6 2.6 0 0 0 .36 2.81L71.916 57.71c1.507 2.188 5.207 3.76 8.263 3.517l39.42-3.152a3.8 3.8 0 0 0 3.149-1.556h.009z"/><path fill="url(#l)" d="M76.248 48.691 52.963 14.898c-1.507-2.185-.252-4.156 2.8-4.4l39.42-3.153c3.058-.245 6.757 1.328 8.265 3.516l23.285 33.79c1.507 2.184.249 4.156-2.806 4.4l-39.42 3.15c-3.052.248-6.751-1.325-8.259-3.51"/></g></g></g><defs><linearGradient id="d" x1="284.169" x2="425.276" y1="184.766" y2="184.766" gradientUnits="userSpaceOnUse"><stop stop-color="#5e98f7"/><stop offset="1" stop-color="#4670ba"/></linearGradient><linearGradient id="e" x1="91.086" x2="91.086" y1="70.176" y2="151.425" gradientUnits="userSpaceOnUse"><stop stop-color="#5e98f7"/><stop offset="1" stop-color="#4670ba"/></linearGradient><linearGradient id="f" x1="52.58" x2="124.47" y1="115.53" y2="89.338" gradientUnits="userSpaceOnUse"><stop stop-color="#7aacff"/><stop offset=".456" stop-color="#5386dc"/><stop offset="1" stop-color="#7ca4eb"/></linearGradient><linearGradient id="g" x1="-777.747" x2="-636.55" y1="1266.01" y2="1266.01" gradientUnits="userSpaceOnUse"><stop stop-color="#5e98f7"/><stop offset="1" stop-color="#4670ba"/></linearGradient><linearGradient id="h" x1="-769.302" x2="-710.189" y1="1143.22" y2="1392.04" gradientUnits="userSpaceOnUse"><stop stop-color="#5e98f7"/><stop offset="1" stop-color="#4670ba"/></linearGradient><linearGradient id="i" x1="84.034" x2="84.034" y1="10.914" y2="80.457" gradientUnits="userSpaceOnUse"><stop stop-color="#5e98f7"/><stop offset="1" stop-color="#4670ba"/></linearGradient><linearGradient id="j" x1="90.687" x2="90.687" y1="23.781" y2="68.689" gradientUnits="userSpaceOnUse"><stop stop-color="#5e98f7"/><stop offset="1" stop-color="#4670ba"/></linearGradient><linearGradient id="k" x1="-748.264" x2="-665.702" y1="1240.38" y2="1240.38" gradientUnits="userSpaceOnUse"><stop stop-color="#5e98f7"/><stop offset="1" stop-color="#4670ba"/></linearGradient><linearGradient id="l" x1="-743.452" x2="-708.917" y1="1168.56" y2="1314.05" gradientUnits="userSpaceOnUse"><stop stop-color="#5e98f7"/><stop offset="1" stop-color="#4670ba"/></linearGradient><clipPath id="a"><path fill="#fff" d="M0 0h183v194H0z"/></clipPath></defs></svg>
